icons/linear-new-nature-weather-lightning.svg

<svg xmlns="http://www.w3.org/2000/svg" width="32px" height="32px" viewBox="0 0 32 32" version="1.1">
    <title>linear-new-nature-weather-lightning</title>
    <g id="linear-new-nature-weather-lightning" stroke-width="1" fill-rule="evenodd">
        <path d="M17.4961389,14.1317569 C17.9756564,14.4057668 18.1422531,15.0166215 17.8682431,15.4961389 L14.722,21 L19,21 C19.7294315,21 20.200337,21.7486077 19.9189898,22.3950433 L19.8682431,22.4961389 L15.8682431,29.4961389 C15.5942332,29.9756564 14.9833785,30.1422531 14.5038611,29.8682431 C14.0243436,29.5942332 13.8577469,28.9833785 14.1317569,28.5038611 L17.276,23 L13,23 C12.2705685,23 11.799663,22.2513923 12.0810102,21.6049567 L12.1317569,21.5038611 L16.1317569,14.5038611 C16.4057668,14.0243436 17.0166215,13.8577469 17.4961389,14.1317569 Z M16,2 C19.6512148,2 22.777504,4.46017016 23.7145826,7.87430526 L23.774,8.108 L23.9595605,8.14179114 C27.3380896,8.80727012 29.8821241,11.7350975 29.996017,15.2535867 L30,15.5 C30,19.6421356 26.6421356,23 22.5,23 L22.5,21 C25.5375661,21 28,18.5375661 28,15.5 C28,12.5982798 25.7450914,10.2001156 22.8658687,10.0118923 L22.054409,9.95884473 L21.9408934,9.15361494 C21.5264722,6.21389408 18.998855,4 16,4 C13.001082,4 10.4736282,6.21392385 10.059912,9.15338991 L9.94654862,9.95883984 L9.1348919,10.0118891 C6.25500898,10.200116 4,12.5981758 4,15.5 C4,18.5375661 6.46243388,21 9.5,21 L9.5,23 C5.35786438,23 2,19.6421356 2,15.5 C2,11.8723642 4.58346471,8.82270951 8.04107757,8.14178093 L8.225,8.108 L8.28594698,7.87451654 C9.20004946,4.54163682 12.2010006,2.1177001 15.7401033,2.00416393 L16,2 Z" id="&#24418;&#29366;" fill-rule="nonzero" />
    </g>
</svg>

<svg xmlns="http://www.w3.org/2000/svg" viewBox="0 0 32 32"><path fill="currentColor" d="M17.496 14.132a1 1 0 0 1 .372 1.364L14.722 21H19a1 1 0 0 1 .919 1.395l-.05.101-4 7a1 1 0 1 1-1.737-.992L17.276 23H13a1 1 0 0 1-.919-1.395l.05-.101 4-7a1 1 0 0 1 1.365-.372M16 2a8.005 8.005 0 0 1 7.715 5.874l.059.234.186.034a7.503 7.503 0 0 1 6.036 7.112L30 15.5a7.5 7.5 0 0 1-7.5 7.5v-2a5.5 5.5 0 0 0 .366-10.988l-.812-.053-.113-.805a6.001 6.001 0 0 0-11.881 0l-.113.805-.812.053A5.5 5.5 0 0 0 9.5 21v2A7.5 7.5 0 0 1 8.041 8.142l.184-.034.06-.233a8.004 8.004 0 0 1 7.455-5.87z"/></svg>
